X:96
T:The Gatehouse Maid
R:reel
M:4/4
L:1/8
K:Ador
A2Bd edBA|GBAG GEDG|A2Bd edBd|efdB BAGB:|
^gaea agea|g/a/gdg egdg|^gaea agab|gedB BAab|
c'abg aged|gbaf gzge|dega bgag|egde BedB|

